X: 1
T:O'Keefe's Slide
M:12/8
L:1/8
Q:80
C:arr. Mark Kaufman
S:Jig
K:HP
|: G|
{g}A2e{A}e2d{g}BAB{g}d2B|
{g}A2e{A}e2d{g}B2G{g}GAB|
{g}A2e{A}e2d{g}BAB{g}d3|  !
{g}BAB{g}d2e{g}B2A{d}A2:| |:
d|
{g}e2a{g}a2g{ag}a2g{a}e2d|
{g}e2a{g}a2g{ag}a2g{a}e2f|  !
{gf}g2a{f}g2e{g}dBA{g}G2A|
{g}BAB{g}d2e{g}B2A{d}A2:|
